X:1
T:G Major                    Jacob French, 1786
T:Revelation Chapters 4–8
T:The Heavenly Vision
T:Transcribed from  The Worcester Collection, 1786.
%%score [ 1 2 3 4 ]
L:1/8
Q:1/4=120
M:2/2
K:G
V:1 treble nm="Tr." snm="Tr."
V:2 treble nm="C." snm="C."
V:3 treble-8 nm="T." snm="T."
V:4 bass nm="B." snm="B."
V:1
 z8 | B3 B A2 A2 | B6 c2 | d4 d3 d | d4 e4 | d4 d2 d2 | d4 d4 | z8 | z8 | d2 dd d2 dd | d2 d2 d4 | %11
w: |I be- held and|lo! a|great mul- ti-|tude which|no man could|num- ber,|||thou- sands of thou- sands and|ten times thou-|
 d4 B2 AG | A2 AA B2 B2 | A2 A2 z4 | d2 dd d2 dd | e2 e2 e2 e2 | z8 | B2 A2 G2 G2 | A4 A4 | %19
w: sands, thou- sands of|thou- sands, and ten times|thou- sands,|thou- sands of thou- sands, and|ten times thou- sands,||stood be- fore the|Lamb, and|
 d2 (d>c) (B2 e2) | d4 d4 | B4 A2 A2 | B2 A2 GA Bc | d4 d2 c2 |[M:3/2] B6 B6 | %25
w: they had * palms *|in their|hands, And they||||
"^Ho  – ly,                       Ho  – ly," A6 A6 | B6 B6 | A6 A6 | B6 B6 | G4 (B2 G2) A4 | %30
w: |||||
 B4 B4 z2 B2 |:[M:6/4] A4 Bc d4 B2 | e4 d2 d4 d2 | d4 c2 B4 e2 |1 d4 d2 d4 d2 :|2 d4 d2 d6- || %36
w: ||||||
 d6 z2 z4 |:[M:2/2] B2 B2 Bc dc | B2 A2 B2 Bc | (d2 d2 dedc | B2) B2 c2 d2 | c4 (B2 A2) | B8 | %43
w: |||||||
 A2 B2 A2 G2 | G4 (d3 c) |[M:3/2] B8 z4 | B8 z4 | c8 z4 | (B3 A G3 A B3 c | d3 c B8) | %50
w: |||||||
[M:2/2] Bc d2 e2 e2 | d4 d4 | d2 d2 G2 G2 | A2 Bc d2 e2 | d2 d2 d4- | d4 z4 :| z8 | z8 | z4 z2 B2 | %59
w: |||||||||
 B4 B2 d2 | c4 c4 | B4 ^c2 A2 | B8 | B4 A4 | B4 Bc dc | B2 A2 G2 A2 | B4 B2 B2 | G4 G4 | %68
w: |||||||||
 G2 G2 A2 A2 | B4 B2 d2 | (e4 d2) ^c2 | d4 d2 d2 | (d3 c) B4 | c2 d2 ef g2 | d2 d2 c2 B2 | %75
w: |||||||
 A2 G2 A4- | A4 B2 B2 |: d4 d2 cc | B2 c2 B3 c | d2 cB ee d2 |1 d4 B2 B2 :|2 d8 || z4 B4 | %83
w: ||||||||
 B4 c>d e>f | (g2 d2) d2 d2 | d8 |] %86
w: |||
V:2
 z8 | G3 G F2 F2 | G6 F2 | G4 F3 F | F4 G4 | G4 F2 F2 | G4 G4 | z8 | z8 | z4 G2 GG | F2 FF G2 G2 | %11
w: |I be- held and|lo! a|great mul- ti-|tude which|no man could|num- ber,|||thou- sands of|thou- sands, and ten times|
 F2 F2 G2 AG | F2 FF G2 G>F | E4 D4 | z4 G2 GG | G2 GG G2 G2 | D2 D2 D4 | D4 E2 G2 | F4 E4 | %19
w: thou- sands, thou- sands of|thou- sands, and ten times *|thou- sands,|thou- sands of|thou- sands, and ten times|thou- sands, stood|be- fore the|Lamb, And|
 G2 F2 (E2 G2) | F4 F4 | (G2 D2) D2 D2 | D2 D2 D2 G2 | F4 GF EF |[M:3/2] G6 G6 | z12 | G6 G6 | %27
w: they had palms *|in their|hands, * And they|cease not day nor|night, say- * ing, *|Ho- ly,||Ho- ly,|
 z12 | G6 G6 | G4 G4 (FE F2) | G4 G4 z2 G2 |:[M:6/4] A4 G2 F4 EF | G4 G2 F4 F2 | G4 F2 G4 G2 |1 %34
w: |Ho- ly,|Lord God A- * *|migh- ty, which|was, and is, and *|is to come, which|was, and is, and|
 F4 F2 G4 G2 :|2 F4 F2 G6- || G6 z2 z4 |:[M:2/2] G2 G2 G2 F2 | E2 D2 G2 G2 | G8- | G2 G2 G2 D2 | %41
w: is to come. Which|is to come.||And I heard a|migh- ty an- gel|fly-|* ing in the|
 E4 D4 | D8 | EF GF E2 D2 | G4 G4 |[M:3/2] D8 z4 | G8 z4 | G8 z4 | (D4 E4 F4 | G4 D8) | %50
w: midst of|heav'n,|cry- * ing * with a|loud voice,|Woe,|Woe,|Woe,|Woe~ _ _|_ _|
[M:2/2] G2 G2 EF G2 | F4 F4 | G2 A2 G2 E2 | F2 E2 F2 G2 | F2 F2 G4- | G4 z4 :| z8 | z8 | z4 z2 G2 | %59
w: be un- to * the|earth by|rea- son of the|trum- pet which is|yet to sound.||||The|
 D4 D2 D2 | G4 A4 | F4 F2 F2 | G8 | G4 D4 | D4 G2 FE | D2 E2 D2 EF | G4 G2 G2 | G4 G4 | %68
w: great men and|no- bles,|rich men and|poor,|bond and|free, ga- ther- *|ed them- selves to- *|ge- ther, and|cri- ed|
 G2 D2 E2 F2 | G4 G2 GF | (E4 F2) G2 | F4 F2 F2 | G4 G4 | G2 G2 A2 D2 | D2 G2 EF G2 | A2 G2 F4- | %76
w: to the rocks and|moun- tains to *|fall * up-|on them, And|hide them|from the face of|him that sit- * teth|on the throne,~|
 F4 G2 G2 |: B4 B2 AG | F2 F2 G3 G | G2 EE EG F2 |1 G4 G2 G2 :|2 G8 || z4 D4 | G4 E2 A2 | %84
w: ~ For the|great day of his|wrath is come, And|who shall be a- ble to|stand? For the|stand?|And|who shall be|
 (D2 G2) F2 F2 | G8 |] %86
w: a- * ble to|stand?|
V:3
 G3 A B2 c2 | d8- | d6 c2 | B4 A3 A | A4 c4 | B4 A2 A2 | G4 G4 | z8 | z4 A2 AA | A2 AA B2 G2 | %10
w: I be- held and|lo!~|_ a|great mul- ti-|tude which|no man could|num- ber,||thou- sands of|thou- sands, and ten times|
 A2 A2 B2 BB | A2 AA B2 c2 | d4 d4 | c2 Ac B2 GG | A2 A2 B2 B2 | G2 GG c2 cc | B2 G2 A2 D2 | %17
w: thou- sands, thou- sands of|thou- sands, and ten times|thou- sands,|thou- sands of thou- sands, and|ten times thou- sands,|thou- sands of thou- sands, and|ten times thou- sands,|
 G2 A2 B2 c2 | d4 c4 | B2 A2 (G2 c^A) | B4 A4 | G4 D2 D2 | G2 A2 B2 G2 | A4 B2 c2 |[M:3/2] d6 d6 | %25
w: stood be- fore the|Lamb, And|they had palms * *|in their|hands, And they||||
 z12 | d6 d6 | z12 | d6 d6 | e4 d4 ^c4 | d4 d4 z2 Bc |:[M:6/4] d4 G2 A4 G2 | c4 B2 A4 A2 | %33
w: ||||||||
 B4 c2 d4 c2 |1 B4 A2 G4 Bc :|2 B4 A2 G6- || G6 z2 z4 |:[M:2/2] d2 d2 e2 f2 | g2 fe d2 dc | %39
w: ||||||
 (B>cB>cB>cB>c | d2) d2 e2 f2 | g4 f4 | g8 | c2 B2 c2 d2 | e4 d4 |[M:3/2] g8 z4 | d8 z4 | e8 z4 | %48
w: |||||||||
 (g3 f e4 d4 | g12) |[M:2/2] d2 B2 c2 B2 | A4 (3(A2 B2 c2) | B2 A2 B2 c2 | d2 G2 AB c2 | %54
w: ||||||
 B2 A2 G4- | G4 z4 :| z8 | z8 | z4 z2 d2 | g4 g2 f2 | e4 e4 | d4 ^c2 c2 | d8 | e4 f4 | g4 dc BA | %65
w: |||||||||||
 G2 A2 B2 c2 | d4 d2 d2 | e4 e4 | d2 d2 ^c2 c2 | d4 d2 B2 | (c2 B2 A2) G2 | A4 A2 A2 | (B3 c) d4 | %73
w: ||||||||
 e2 d2 c2 B2 | A2 G2 e2 e2 | d2 ^c2 d4- | d4 d2 d2 |: g4 g2 fe | d2 c2 d3 c | B2 AG cB A2 |1 %80
w: |||||||
 G4 d2 d2 :|2 G8 || z4 g4 | (d3 =f) e2 c2 | B4 A2 A2 | G8 |] %86
w: ||||||
V:4
 z8 | [G,,G,]3 [G,,G,] D,2 D,2 | [G,,G,]6 [A,,A,]2 | [G,,G,]4 D,3 D, | D,4 C,4 | G,4 D,2 D,2 | %6
w: |I be- held and|lo! a|great mul- ti-|tude which|no man could|
 G,,4 G,,4 | D,2 D,D, D,2 D,D, | [G,,G,]2 G,,2 D,2 D,2 | D,2 D,D, [G,,G,]2 [G,,G,][G,,G,] | %10
w: num- ber,|thou- sands of thou- sands, and|ten times thou- sands,|thou- sands of thou- sands, and|
 D,2 D,2 [G,,G,]2 [G,,G,]2 | D,2 D,D, G,2 F,E, | D,2 D,2 G,,2 G,,2 | z4 G,,2 G,,G,, | %14
w: ten times thou- sands,|thou- sands of thou- sands, and|ten times thou- sands,|thou- sands of|
 D,2 D,D, G,2 G,2 | E,2 E,E, C,2 C,2 | [G,,G,]4 [F,,F,]4 | ([G,,G,]2 [F,,F,]2) E,4 | D,4 A,,4 | %19
w: thou- sands, and ten times|thou- sands, stood be- fore,|stood be-|fore * the|Lamb, And|
 B,,C, D,2 (E,2 C,2) | D,4 D,4 | G,,4 D,2 D,2 | G,,2 D,2 [G,,G,]2 G,,2 | D,4 [G,,G,]2 [A,,A,]2 | %24
w: they * had palms *|in their|hands, And they|||
[M:3/2] [G,,G,]6 [G,,G,]6 |"^Ho  – ly,                      Ho  – ly," D,6 D,6 | %26
w: ||
 [G,,G,]6 [G,,G,]6 | D,6 D,6 | [G,,G,]6 [G,,G,]6 | [C,C]4 [B,,B,]4 [A,,A,]4 | %30
w: ||||
 [G,,G,]4 [G,,G,]4 z2 G,2 |:[M:6/4] D,4 E,2 D,4 E,2 | C,4 G,,2 D,4 D,2 | %33
w: |||
 [G,,G,]4 [A,,A,]2 [G,,G,]4 C,2 |1 D,4 D,2 G,,4 G,2 :|2 D,4 D,2 G,,6- || G,,6 z2 z4 |: %37
w: ||||
[M:2/2] G,2 G,F, E,2 D,2 | E,2 F,2 G,2 G,2 | [G,,G,]8- | [G,,G,]2 [G,,G,]2 [C,C]2 [B,,B,]2 | %41
w: ||||
 [C,C]4 [D,D]4 | [G,,G,]8 | [A,,A,]2 [G,,G,]2 [A,,A,]2 [B,,B,]2 | [C,C]4 ([B,,B,]3 [A,,A,]) | %45
w: ||||
[M:3/2] [G,,G,]8 z4 | [G,,G,]8 z4 | C,8 z4 | ([G,,G,]4 [C,C]4 [B,,B,]3 [A,,A,] | [G,,G,]12) | %50
w: |||||
[M:2/2] [G,,G,]2 [G,,G,]2 [A,,A,]2 [G,,G,]2 | D,4 D,4 | G,2 F,2 E,2 E,2 | D,2 E,2 D,2 C,2 | %54
w: ||||
 D,2 D,2 G,,4- | G,,4 z4 :| D,4 G,3 A, | (G,2 F,2) E,2 D,2 | [G,,G,]4 [G,,G,]2 G,2 | G,4 G,2 B,2 | %60
w: ||And when the|last * trum- pet|soun- ded, *||
 C4 A,4 | B,4 A,2 A,2 | G,8 | E,4 D,4 | G,4 G,A, B,C | D2 C2 B,2 A,2 | G,4 G,2 G,2 | C4 C4 | %68
w: ||||||||
 B,2 B,2 A,2 A,2 | G,4 G,2 G,2 | (A,2 G,2 F,2) E,2 | D,4 D,2 D,2 | G,4 G,4 | C2 B,2 A,2 G,2 | %74
w: ||||||
 F,2 G,2 A,2 G,2 | F,2 E,2 D,4- | D,4 G,2 G,2 |: G,4 G,2 A,C | B,2 A,2 G,3 G, | %79
w: |||||
 G,2 C,C, C,C, D,2 |1 G,,4 G,2 G,2 :|2 G,,8 || %82
w: |||
 z4"^_______________________________________________\nEdited by B. C. Johnston, 2018\n   1. Measure 79, \nTenor\n: second note changed from C# to C, like \nTreble\n. \n   2. Measure 84, Tenor: second note marked as F-flat, interpreted as F-natural." G,4 | %83
w: |
 G,4 A,2 A,2 | G,4 D,2 D,2 | G,,8 |] %86
w: |||

